X:338
T:Im Serdi Yares
T:Fresno Bar
Z:Jack Campin, http://www.campin.me.uk/
F:Jack Campin's Nine-Note Tunebook
% last edit 29-08-2014
M:10/8
L:1/8
Q:3/8=100
K:DMin
A2G A2 D2 F2A|G2F G2 C2 E2G|[1 F2E D2 E2 F2 G|A2G A2  d2  A3:|
                            [2 F2E D2 E2 D2^C|D3- D2- D2- D3|:\
D2E F2 E2 D3 |E2F G2 F2 E3 |
                            [1 F2G A2 G2 F2 G|A2G A2  d2  A3:|\
                            [2 F2E D2 EF ED^C|D3- D2- D2- D3||
A2B c2 B2 A3|B2A G2 ^F2 G3 |   G2A B2 A2 G3  |A2G F2  E2  F3 |
F2G A2 G2 F3|G2F E2  D2 E3 |   E2F G2 F2 E3  |F2E D2 ^C2  D3|]



% == Greek songs ============================================================

